!!!OTL: Qiongren nan
!!!ARE: Asia, China,ÿJilin, Tonghua
!! III, 160
!!!SCT: C1552
!!!YEM: Copyright 1995, estate of Helmut Schaffrath.
**kern
*ICvox
*Ivox
*M2/4
*k[b-]
*F:
{8a
4a
8cc
=1
8.dd
16ff
8dd
8cc
=2
8dd
8cc
8a
8g
=3
2f}
=4
{8.a
16g
8a
8cc
=5
8dd
8ff
8dd
8cc
=6
8dd
8cc
8a
8g
=7
2f}
=8
{4ff
8dd
8cc
=9
4ff
8dd
8cc
=10
8ff
8ff
8dd
8cc
=11
4a
4cc}
=12
{8r
8a
8a
8cc
=13
8.dd
16ff
8dd
8cc
=14
8a
4a
8dd
=15
4cc
8cc
8a}
=16
{8r
8a
8g
8g
=17
8r
8a
8g
8g
=18
8r
8cc
8a
8g
=19
2f
=20
[2g
=21
4g]
4r}
==
!!!AGN: Xiaodiao, Guanggun kuqi
!!!AMT: simple duple
!!!AIN: vox
!!!EED: Helmut Schaffrath
!!!EEV: 1.0
*-
!!!ONB: Tied note syntax fixed by Craig Sapp, 2004/05/03/
